cssgg/stopwatch.svg

<svg
  width="24"
  height="24"
  viewBox="0 0 24 24"
  fill="none"
  xmlns="http://www.w3.org/2000/svg"
>
  <path
    d="M18.6214 2.55029L21.4498 5.37872L20.0356 6.79293L17.2071 3.96451L18.6214 2.55029Z"
    fill="currentColor"
  />
  <path d="M12.8225 8.60055H10.8225V12.6005H12.8225V8.60055Z" fill="currentColor" />
  <path
    fill-rule="evenodd"
    clip-rule="evenodd"
    d="M5.18633 18.8137C8.70105 22.3285 14.3995 22.3285 17.9143 18.8137C21.429 15.299 21.429 9.60055 17.9143 6.08583C14.3995 2.57111 8.70105 2.57111 5.18633 6.08583C1.67161 9.60054 1.67161 15.299 5.18633 18.8137ZM6.60054 17.3995C9.33422 20.1332 13.7664 20.1332 16.5 17.3995C19.2337 14.6659 19.2337 10.2337 16.5 7.50004C13.7664 4.76637 9.33422 4.76637 6.60054 7.50004C3.86688 10.2337 3.86688 14.6659 6.60054 17.3995Z"
    fill="currentColor"
  />
</svg>

<svg viewBox="0 0 24 24" xmlns="http://www.w3.org/2000/svg"><g><path d="M18.62 2.55l2.82 2.82 -1.42 1.41 -2.83-2.83 1.41-1.42Z"/><path d="M12.82 8.6h-2v3.99h2v-4Z"/><path fill-rule="evenodd" d="M5.18 18.81c3.51 3.51 9.21 3.51 12.72 0 3.51-3.52 3.51-9.22 0-12.73 -3.52-3.52-9.22-3.52-12.73 0 -3.52 3.51-3.52 9.21 0 12.72Zm1.41-1.42c2.73 2.73 7.16 2.73 9.89 0 2.73-2.74 2.73-7.17 0-9.9 -2.74-2.74-7.17-2.74-9.9 0 -2.74 2.73-2.74 7.16 0 9.89Z"/></g></svg>
